packages/bezier-icons/icons/view-off.svg

<svg width="24" height="24" viewBox="0 0 24 24" fill="none" xmlns="http://www.w3.org/2000/svg">
<path d="M16.4157 13.547C16.4157 11.278 14.5767 9.44002 12.3087 9.44002C12.0747 9.44002 11.8467 9.46402 11.6237 9.50302L10.3937 8.27302C11.0167 8.12702 11.6547 8.04302 12.3087 8.04302C15.4316 8.04302 18.2977 9.7131 20.1399 12.5595C20.4399 13.023 21.0416 13.2107 21.5289 12.9511C22.0164 12.6915 22.2041 12.0831 21.9101 11.6155C19.7041 8.1079 16.1784 6.04302 12.3087 6.04302C11.0887 6.04302 9.91366 6.27702 8.79466 6.67402L4.57564 2.45413C4.1852 2.06362 3.5521 2.06358 3.16162 2.45406C2.77117 2.84451 2.77117 3.47754 3.1616 3.86799L20.1317 20.839C20.5221 21.2295 21.1552 21.2295 21.5457 20.839C21.9361 20.4485 21.9361 19.8155 21.5457 19.425L16.3527 14.232C16.3917 14.009 16.4157 13.781 16.4157 13.547Z" fill="#313234"/>
<path d="M8.20127 13.547C8.20127 15.816 10.0403 17.654 12.3083 17.654C13.2173 17.654 14.0493 17.35 14.7293 16.85L9.00527 11.127C8.50527 11.807 8.20127 12.638 8.20127 13.547Z" fill="#313234"/>
<path d="M3.08844 12.9508C2.60095 12.6911 2.41307 12.0829 2.70857 11.6163C3.60768 10.1965 4.73019 9.02479 5.99666 8.11861L7.42466 9.54561C6.29022 10.2995 5.28507 11.3153 4.47777 12.5595C4.17729 13.0227 3.57571 13.2103 3.08844 12.9508Z" fill="#313234"/>
</svg>

<svg xmlns="http://www.w3.org/2000/svg" width="24" height="24" fill="none" viewBox="0 0 24 24"><path fill="#313234" d="M16.416 13.547a4.107 4.107 0 0 0-4.107-4.107c-.234 0-.462.024-.685.063l-1.23-1.23a8.4 8.4 0 0 1 1.915-.23c3.123 0 5.989 1.67 7.831 4.517.3.463.902.65 1.389.391.488-.26.675-.868.381-1.335-2.206-3.508-5.732-5.573-9.601-5.573-1.22 0-2.395.234-3.514.631l-4.22-4.22a1 1 0 1 0-1.413 1.414l16.97 16.971a1 1 0 1 0 1.414-1.414l-5.193-5.193c.039-.223.063-.451.063-.685M8.201 13.547a4.107 4.107 0 0 0 4.107 4.107 4.07 4.07 0 0 0 2.421-.804l-5.724-5.723c-.5.68-.804 1.511-.804 2.42M3.089 12.95c-.488-.259-.676-.867-.38-1.334.899-1.42 2.021-2.591 3.288-3.497l1.428 1.427a10.4 10.4 0 0 0-2.947 3.014c-.3.463-.902.65-1.39.39"/></svg>
